images_elementary_svg/sw/res/sf01.svg

<svg viewBox="0 0 16 16" xmlns="http://www.w3.org/2000/svg" xmlns:xlink="http://www.w3.org/1999/xlink"><linearGradient id="a"><stop offset="0" stop-color="#737373"/><stop offset=".262" stop-color="#636363"/><stop offset=".705" stop-color="#4b4b4b"/><stop offset="1" stop-color="#3f3f3f"/></linearGradient><radialGradient id="b" cx="10" cy="1.34" gradientTransform="matrix(-2.79608 0 0 -2.9958 37.96 4.016)" gradientUnits="userSpaceOnUse" r="5.007" xlink:href="#a"/><radialGradient id="c" cx="9" cy="1.239" gradientTransform="matrix(-2.5459 0 0 -2.9096 31.913 3.606)" gradientUnits="userSpaceOnUse" r="5.499" xlink:href="#a"/><clipPath id="d"><path d="m16 1.7929688c-1.036913 1.1926078-1.994844 2.305806-2.84375 3.2773437-.01719-.0007439-.01443-.00586-.0332-.00586a.53346598.53346598 0 0 0 -.429691.2167975l-4.427734 5.986328c-.5977315.129119-1.1855087.457135-1.6035156 1.091797-1.1329277 1.726413-2.4042969 3.275391-2.4042969 3.275391a.53346598.53346598 0 0 0 -.1191406.365234h5.4785156c.1737957-.102636.340494-.219138.4882815-.365234.412334-.407618.681596-.978348.802734-1.691407.05267-.307763-.0127-.578532-.05664-.855468l5.148437-4.4882816z"/></clipPath><linearGradient id="e" gradientTransform="matrix(.5656 0 0 .5621 -.077 -7.93)" gradientUnits="userSpaceOnUse" x1="28.059" x2="33.437" y1="18.868" y2="23.743"><stop offset="0" stop-color="#6e3d09"/><stop offset=".242" stop-color="#ea8113"/><stop offset=".621" stop-color="#5c3307"/><stop offset="1" stop-color="#e07c12"/></linearGradient><linearGradient id="f" gradientTransform="matrix(.55645 0 0 .56274 .185 -7.95)" gradientUnits="userSpaceOnUse" x1="20.250999" x2="22.011999" y1="29.811001" y2="31.724001"><stop offset="0" stop-color="#f2f2f2"/><stop offset="1" stop-color="#c3c3c3"/></linearGradient><radialGradient id="g" cx="15.415" cy="35.356998" gradientTransform="matrix(.45238 0 0 .5118 1.782 -5.44)" gradientUnits="userSpaceOnUse" r="7.579"><stop offset="0" stop-color="#650000"/><stop offset="1" stop-color="#fb66f5"/></radialGradient>
/&amp;gt;<g transform="translate(-2)"><path d="m7.34 1.494c-1.583 0-2.78.338-3.604 1.022a.493.493 0 0 0 -.002 0c-.82.67-1.24 1.694-1.24 3.035 0 1.395.446 2.48 1.32 3.216a.493.493 0 0 0 .002.002c.875.74 2.12 1.11 3.74 1.11h.186v4.138a.493.493 0 0 0 .492.492h.774a.493.493 0 0 0 .492-.492c0-3.137-.006-6.86-.008-10.524h2.016v10.507a.493.493 0 0 0 .492.492h1a.493.493 0 0 0 .492-.492v-12a.493.493 0 0 0 -.492-.492c-2.288 0-3.16-.008-5.658-.014a.493.493 0 0 0 -.002 0zm-3.604 1.022.09-.06a.493.493 0 0 0 -.09.06z" fill="url(#c)"/><path d="m7.34 1c-1.654 0-2.98.357-3.922 1.14-.95.776-1.418 1.963-1.418 3.41 0 1.503.498 2.75 1.494 3.59 1.156 1.08 2.873 1.223 3.74 1.23h.014v4.136c0 .273.22.494.495.494h1.757c.274 0 .496-.22.494-.494l.006-10.506h1v10.518c0 .266.216.482.483.482h2.035c.266 0 .483-.216.482-.482v-13.036c0-.266-.216-.482-.482-.482h-4.518zm5.66 1v12h-1v-11h-3c.002 3.832.008 7.733.008 11.016h-.773v-4.14c0-.27-.22-.49-.492-.49h-.188c-1.543 0-2.66-.35-3.42-.995h-.002c-.764-.645-1.147-1.542-1.147-2.84 0-1.246.358-2.08 1.06-2.654h.005c.702-.584 1.778-.91 3.29-.91 2.496.005 3.371.013 5.659.013z" fill-opacity=".431"/><path d="m13 2v12h-1v-11h-3c.002 3.832.008 7.733.008 11.016h-.773v-4.14c0-.27-.22-.49-.492-.49h-.188c-1.543 0-2.66-.35-3.42-.995h-.002c-.764-.645-1.147-1.542-1.147-2.84 0-1.246.358-2.08 1.06-2.654h.005c.702-.584 1.778-.91 3.29-.91 2.496.005 3.371.013 5.659.013z" fill="url(#b)"/></g><g clip-path="url(#d)"><path d="m13.247 5.778 2.3 2.136.91-.942-.01-4.88c-1.168 1.343-2.276 2.634-3.2 3.687z" fill="url(#e)" stroke="#673907" stroke-linecap="round"/><path d="m8.316 12.098 1.437 1.24 6.05-5.273c-.245-.88-1.64-2.467-2.68-2.467z" fill="url(#f)" stroke="#797b75" stroke-linecap="round"/><path d="m4.667 15.973c3.003 0 5.284.417 5.715-2.12.35-2.045-2.073-3.025-3.275-1.2-1.153 1.757-2.437 3.32-2.437 3.32z" fill="url(#g)"/></g></svg>

<?xml version="1.0" encoding="UTF-8" standalone="no"?>
<svg
   xmlns:dc="http://purl.org/dc/elements/1.1/"
   xmlns:cc="http://creativecommons.org/ns#"
   xmlns:rdf="http://www.w3.org/1999/02/22-rdf-syntax-ns#"
   xmlns:svg="http://www.w3.org/2000/svg"
   xmlns="http://www.w3.org/2000/svg"
   xmlns:xlink="http://www.w3.org/1999/xlink"
   xmlns:sodipodi="http://sodipodi.sourceforge.net/DTD/sodipodi-0.dtd"
   xmlns:inkscape="http://www.inkscape.org/namespaces/inkscape"
   viewBox="0 0 16 16"
   version="1.1"
   id="svg21"
   sodipodi:docname="sf01.svg"
   inkscape:version="0.92.3 (unknown)"><metadata
   id="metadata25">
  <rdf:RDF>
    <cc:Work
       rdf:about="">
      <dc:format>image/svg+xml</dc:format>
      <dc:type
         rdf:resource="http://purl.org/dc/dcmitype/StillImage" />
      <dc:title></dc:title>
    </cc:Work>
  </rdf:RDF>
</metadata>
<sodipodi:namedview
   pagecolor="#ffffff"
   bordercolor="#666666"
   borderopacity="1"
   objecttolerance="10"
   gridtolerance="10"
   guidetolerance="10"
   inkscape:pageopacity="0"
   inkscape:pageshadow="2"
   inkscape:window-width="1366"
   inkscape:window-height="706"
   id="namedview23"
   showgrid="false"
   inkscape:zoom="14.75"
   inkscape:cx="-0.71186441"
   inkscape:cy="7.4576271"
   inkscape:window-x="0"
   inkscape:window-y="0"
   inkscape:window-maximized="1"
   inkscape:current-layer="svg21" />
<defs
   id="defs13">
  <linearGradient
     id="a">
    <stop
       offset="0"
       stop-color="#737373"
       id="stop2" />
    <stop
       offset=".262"
       stop-color="#636363"
       id="stop4" />
    <stop
       offset=".705"
       stop-color="#4b4b4b"
       id="stop6" />
    <stop
       offset="1"
       stop-color="#3f3f3f"
       id="stop8" />
  </linearGradient>
  <radialGradient
     xlink:href="#a"
     id="c"
     cx="10"
     cy="1.34"
     fx="10"
     fy="1.34"
     r="5.007"
     gradientTransform="matrix(-2.79608,0,0,-2.9958,37.96,4.016)"
     gradientUnits="userSpaceOnUse" />
  <radialGradient
     xlink:href="#a"
     id="b"
     cx="9"
     cy="1.239"
     fx="9"
     fy="1.239"
     r="5.499"
     gradientTransform="matrix(-2.5459,0,0,-2.9096,31.913,3.606)"
     gradientUnits="userSpaceOnUse" />
  <clipPath
     clipPathUnits="userSpaceOnUse"
     id="clipPath936">
    <path
       style="fill:#4c158a;fill-opacity:1"
       d="m 16,1.7929688 c -1.036913,1.1926078 -1.994844,2.305806 -2.84375,3.2773437 -0.01719,-7.439e-4 -0.01443,-0.00586 -0.0332,-0.00586 A 0.53346598,0.53346598 0 0 0 12.693359,5.28125 L 8.265625,11.267578 C 7.6678935,11.396697 7.0801163,11.724713 6.6621094,12.359375 5.5291817,14.085788 4.2578125,15.634766 4.2578125,15.634766 A 0.53346598,0.53346598 0 0 0 4.1386719,16 h 5.4785156 c 0.1737957,-0.102636 0.340494,-0.219138 0.4882815,-0.365234 0.412334,-0.407618 0.681596,-0.978348 0.802734,-1.691407 0.05267,-0.307763 -0.0127,-0.578532 -0.05664,-0.855468 L 16,8.5996094 Z"
       id="path938"
       inkscape:connector-curvature="0" />
  </clipPath>
  <linearGradient
     id="g"
     y2="23.743"
     gradientUnits="userSpaceOnUse"
     x2="33.437"
     gradientTransform="matrix(0.5656,0,0,0.5621,-0.077,-7.93)"
     y1="18.868"
     x1="28.059">
    <stop
       offset="0"
       stop-color="#6e3d09"
       id="stop27" />
    <stop
       offset=".242"
       stop-color="#ea8113"
       id="stop29" />
    <stop
       offset=".621"
       stop-color="#5c3307"
       id="stop31" />
    <stop
       offset="1"
       stop-color="#e07c12"
       id="stop33" />
  </linearGradient>
  <linearGradient
     id="h"
     y2="31.724001"
     xlink:href="#c-3"
     gradientUnits="userSpaceOnUse"
     x2="22.011999"
     gradientTransform="matrix(0.55645,0,0,0.56274,0.185,-7.95)"
     y1="29.811001"
     x1="20.250999" />
  <linearGradient
     id="c-3">
    <stop
       offset="0"
       stop-color="#f2f2f2"
       id="stop37" />
    <stop
       offset="1"
       stop-color="#c3c3c3"
       id="stop39" />
  </linearGradient>
  <radialGradient
     id="i"
     gradientUnits="userSpaceOnUse"
     cy="35.356998"
     cx="15.415"
     gradientTransform="matrix(0.45238,0,0,0.5118,1.782,-5.44)"
     r="7.579">
    <stop
       offset="0"
       stop-color="#650000"
       id="stop42" />
    <stop
       offset="1"
       stop-color="#fb66f5"
       id="stop44" />
  </radialGradient>
</defs>
/&gt;<g
   id="g875"
   transform="translate(-2)">
  <path
     id="path15"
     d="m 7.34,1.494 c -1.583,0 -2.78,0.338 -3.604,1.022 a 0.493,0.493 0 0 0 -0.002,0 c -0.82,0.67 -1.24,1.694 -1.24,3.035 0,1.395 0.446,2.48 1.32,3.216 a 0.493,0.493 0 0 0 0.002,0.002 c 0.875,0.74 2.12,1.11 3.74,1.11 h 0.186 v 4.138 a 0.493,0.493 0 0 0 0.492,0.492 H 9.008 A 0.493,0.493 0 0 0 9.5,14.017 C 9.5,10.88 9.494,7.157 9.492,3.493 h 2.016 V 14 A 0.493,0.493 0 0 0 12,14.492 h 1 A 0.493,0.493 0 0 0 13.492,14 V 2 A 0.493,0.493 0 0 0 13,1.508 C 10.712,1.508 9.84,1.5 7.342,1.494 a 0.493,0.493 0 0 0 -0.002,0 z m -3.604,1.022 0.09,-0.06 a 0.493,0.493 0 0 0 -0.09,0.06 z"
     style="fill:url(#b)"
     inkscape:connector-curvature="0" />
  <path
     id="path17"
     d="M 7.34,1 C 5.686,1 4.36,1.357 3.418,2.14 2.468,2.916 2,4.103 2,5.55 2,7.053 2.498,8.3 3.494,9.14 c 1.156,1.08 2.873,1.223 3.74,1.23 h 0.014 v 4.136 C 7.248,14.779 7.468,15 7.743,15 H 9.5 c 0.274,0 0.496,-0.22 0.494,-0.494 L 10,4 h 1 V 14.518 C 11,14.784 11.216,15 11.483,15 h 2.035 C 13.784,15 14.001,14.784 14,14.518 V 1.482 C 14,1.216 13.784,1 13.518,1 H 9 Z M 13,2 V 14 H 12 V 3 H 9 c 0.002,3.832 0.008,7.733 0.008,11.016 H 8.235 v -4.14 c 0,-0.27 -0.22,-0.49 -0.492,-0.49 H 7.555 c -1.543,0 -2.66,-0.35 -3.42,-0.995 H 4.133 C 3.369,7.746 2.986,6.849 2.986,5.551 c 0,-1.246 0.358,-2.08 1.06,-2.654 H 4.051 C 4.753,2.313 5.829,1.987 7.341,1.987 9.837,1.992 10.712,2 13,2 Z"
     inkscape:connector-curvature="0"
     style="fill-opacity:0.431" />
  <path
     id="path19"
     d="M 13,2 V 14 H 12 V 3 H 9 c 0.002,3.832 0.008,7.733 0.008,11.016 H 8.235 v -4.14 c 0,-0.27 -0.22,-0.49 -0.492,-0.49 H 7.555 c -1.543,0 -2.66,-0.35 -3.42,-0.995 H 4.133 C 3.369,7.746 2.986,6.849 2.986,5.551 c 0,-1.246 0.358,-2.08 1.06,-2.654 H 4.051 C 4.753,2.313 5.829,1.987 7.341,1.987 9.837,1.992 10.712,2 13,2 Z"
     style="fill:url(#c)"
     inkscape:connector-curvature="0" />
</g>
<g
   id="g931"
   clip-path="url(#clipPath936)">
  <path
     style="fill:url(#g);stroke:#673907;stroke-linecap:round"
     inkscape:connector-curvature="0"
     id="path69"
     d="m 13.247,5.778 2.3,2.136 0.91,-0.942 -0.01,-4.88 c -1.168,1.343 -2.276,2.634 -3.2,3.687 z" />
  <path
     style="fill:url(#h);stroke:#797b75;stroke-linecap:round"
     inkscape:connector-curvature="0"
     id="path71"
     d="m 8.316,12.098 1.437,1.24 6.05,-5.273 c -0.245,-0.88 -1.64,-2.467 -2.68,-2.467 z" />
  <path
     style="fill:url(#i)"
     inkscape:connector-curvature="0"
     id="path73"
     d="m 4.667,15.973 c 3.003,0 5.284,0.417 5.715,-2.12 0.35,-2.045 -2.073,-3.025 -3.275,-1.2 -1.153,1.757 -2.437,3.32 -2.437,3.32 z" />
</g>
</svg>
